public/marioly-logo-footer.svg

<svg width="155" height="113" viewBox="0 0 155 113" fill="none" xmlns="http://www.w3.org/2000/svg">
<g clip-path="url(#clip0_1_54)">
<path fill-rule="evenodd" clip-rule="evenodd" d="M114.028 8.78416L100.268 26.1817L97.781 15.1467L108.439 1.67133C108.588 1.50891 108.725 1.33601 108.886 1.18512C109.371 0.732449 109.958 0.392628 110.59 0.197413C111.154 0.0226307 111.31 0.0440098 111.894 0H130.273C130.829 0.0396089 130.976 0.0203282 131.513 0.177925C132.921 0.590256 134.082 1.74467 134.497 3.15509C134.655 3.69159 134.636 3.83829 134.676 4.3926V41.2561H136.704L137.329 41.3001C137.873 41.4185 138.022 41.4206 138.532 41.6522C139.677 42.174 140.573 43.2051 140.928 44.4101C141.085 44.9466 141.065 45.0933 141.105 45.6476V57.1856C141.065 57.7388 141.085 57.8855 140.928 58.422C140.513 59.8303 139.351 60.9872 137.944 61.399C137.406 61.5572 137.258 61.5373 136.704 61.5771H114.408C113.853 61.5373 113.706 61.5572 113.168 61.399C111.76 60.9861 110.599 59.8324 110.184 58.422C110.026 57.8855 110.046 57.7388 110.006 57.1856V46.4534L118.81 35.4719V52.793H132.301V50.0392H130.273C129.718 50.0004 129.571 50.0193 129.034 49.8621C127.625 49.4493 126.465 48.2945 126.05 46.8852C125.891 46.3487 125.911 46.2009 125.871 45.6476V8.78416H114.028Z" fill="#0052FF"/>
<path fill-rule="evenodd" clip-rule="evenodd" d="M118.81 11.6606V25.7239L100.638 48.3911L100.19 48.871C100.019 49.0072 99.8573 49.156 99.6767 49.2786C99.1316 49.6485 98.5036 49.8937 97.8556 49.9911C97.6392 50.0236 97.4187 50.0236 97.2002 50.0393H78.5026C77.9102 49.9943 77.7517 50.0163 77.1799 49.8371C76.1089 49.4997 75.1854 48.7442 74.645 47.7634C74.3563 47.2395 74.3467 47.0802 74.1862 46.5091L73.8726 44.9447L80.4924 33.1794L82.1114 41.2562H95.0851L118.81 11.6606Z" fill="#0052FF"/>
<path fill-rule="evenodd" clip-rule="evenodd" d="M38.8612 50.0396L36.9403 52.7931H52.2699L75.5596 11.4016L78.3919 24.3101L58.6856 59.3358L58.3176 59.8882C57.921 60.3226 57.8416 60.4591 57.3521 60.7959C56.8036 61.1765 56.1672 61.4274 55.5106 61.5268C55.2929 61.5604 55.0701 61.5605 54.8473 61.5773H28.5143C27.6602 61.515 26.8129 61.3247 26.0989 60.8565C24.3266 59.6945 23.6025 57.17 24.5764 55.2249C24.671 55.0346 24.7925 54.8595 24.9005 54.6759L32.9484 43.1382C33.3299 42.665 33.7434 42.2187 34.2599 41.9038C34.6043 41.6933 34.9756 41.5299 35.3655 41.4204C35.5613 41.3649 35.7031 41.3329 35.8331 41.3127H50.5769L46.8044 47.8419C46.6812 48.0221 46.5698 48.2124 46.4331 48.3841C45.8845 49.0713 45.13 49.5849 44.2895 49.8443C43.7274 50.0177 43.5721 49.9958 42.9898 50.0396H38.8612ZM53.416 36.4019H8.08056C7.08639 36.2806 6.13778 35.7619 5.77826 34.8172C5.28202 33.512 6.12935 31.8952 7.49149 31.5601C7.68222 31.513 7.88308 31.513 8.08056 31.4894H46.0921L48.3945 27.5048H58.5573L53.416 36.4019ZM69.3751 8.78436H22.8531C21.8606 8.66395 20.912 8.14559 20.5508 7.1993C20.0562 5.89413 20.9019 4.27875 22.264 3.94379C22.4564 3.89647 22.6573 3.89613 22.8531 3.87238H62.0513L63.0184 2.19807L63.3898 1.65529C63.7864 1.22871 63.8657 1.09448 64.3519 0.763893C64.8937 0.394405 65.5233 0.14735 66.1765 0.0489993C66.3925 0.016328 66.6137 0.0163356 66.8331 0H84.551C84.7705 0.0163356 84.9899 0.0328384 85.2093 0.049174C85.7781 0.179186 85.9351 0.181375 86.4651 0.436851C87.2601 0.819476 87.9302 1.44241 88.369 2.20547C88.6627 2.71508 88.6763 2.87103 88.8467 3.42846L95.3452 32.2658L92.815 35.4352H87.0356L81.0284 8.78385H69.3751V8.78436ZM61.3947 22.5923H15.8162C14.6364 22.4492 13.524 21.6728 13.3721 20.4334C13.227 19.2427 14.0642 18.0386 15.2271 17.7523C15.4196 17.7051 15.6187 17.7051 15.8162 17.6816H54.0709L56.3749 13.697H66.5377L61.3947 22.5923Z" fill="#FF0000"/>
<path d="M20.3411 71.0112L6.50036 95.5297H11.7688L17.313 85.2478L19.0434 95.9768L28.6075 85.2478L26.6444 95.5297H31.9128L35.9742 71.0112L22.9226 85.351L20.3411 71.0112Z" fill="#FF0000"/>
<path d="M49.1787 91.0249L49.3936 95.5297H54.8682L53.0066 71.0112L33.2453 95.5297H38.7199L42.2924 91.0249H49.1787ZM49.1047 86.417H45.7304L48.902 82.256L49.1047 86.417Z" fill="#FF0000"/>
<path d="M80.6127 80.3306C82.3948 75.4475 79.8569 71.4585 74.9338 71.4585H66.017L57.2319 95.53H62.3961L64.768 89.0307H67.9354C70.5519 89.0307 71.5078 91.1283 70.579 93.673L69.9013 95.53H75.0655L75.7432 93.673C76.6594 91.1627 76.9526 88.7556 74.9514 86.6923C77.2092 85.3168 79.4329 83.563 80.6127 80.3306ZM75.3452 80.3306C74.5294 82.5658 71.9926 84.4227 69.7204 84.4227H66.4498L69.4492 76.204H72.7199C74.9921 76.204 76.1735 78.061 75.3452 80.3306Z" fill="#FF0000"/>
<path d="M92.7781 71.4585H87.6171L78.8428 95.53H84.0038L92.7781 71.4585Z" fill="#FF0000"/>
<path d="M91.5306 83.5282C89.0198 90.4058 92.4955 95.9766 99.3478 95.9766C106.2 95.9766 113.709 90.4058 116.22 83.5282C118.743 76.6162 115.267 71.0454 108.415 71.0454C101.563 71.0454 94.0539 76.6162 91.5306 83.5282ZM96.9367 83.5282C98.418 79.4704 102.747 76.1004 106.569 76.1004C110.357 76.1004 112.295 79.4704 110.813 83.5282C109.332 87.586 104.981 90.9216 101.193 90.9216C97.3711 90.9216 95.4553 87.586 96.9367 83.5282Z" fill="#FF0000"/>
<path d="M114.998 95.53H129.249L131.006 90.7157H121.918L128.944 71.4585H123.781L114.998 95.53Z" fill="#FF0000"/>
<path d="M140.632 71.4585H134.917L137.245 85.4543L133.568 95.53H138.732L142.41 85.4543L154.955 71.4585H149.24L141.723 80.2618L140.632 71.4585Z" fill="#FF0000"/>
<path d="M10.3372 101.474H2.38812L1.96434 102.277H5.50443L-0.00469506 112.725H0.864234L6.37336 102.277H9.91344L10.3372 101.474Z" fill="#0052FF"/>
<path d="M14.6674 112.725H15.649L15.3409 108C16.9765 107.614 18.7005 106.328 19.5057 104.801C20.4719 102.969 19.7636 101.474 17.9292 101.474H13.488L7.55498 112.725H8.40782L10.8404 108.112H14.3966L14.6674 112.725ZM13.917 102.277H17.5054C18.8732 102.277 19.3902 103.403 18.6528 104.801C17.9239 106.183 16.2203 107.309 14.8525 107.309H11.2641L13.917 102.277Z" fill="#0052FF"/>
<path d="M26.3791 112.725H27.2803L28.8531 101.474H27.9519L17.6407 112.725H18.5419L21.1451 109.864H26.7937L26.3791 112.725ZM21.8908 109.061L27.8515 102.518L26.9118 109.061H21.8908Z" fill="#0052FF"/>
<path d="M32.6668 112.725H33.568L43.702 101.474H42.7847L33.7023 111.616L35.3338 101.474H34.4005L32.6668 112.725Z" fill="#0052FF"/>
<path d="M42.0519 111.922L44.4076 107.453H49.5564L49.9801 106.649H44.8313L47.1363 102.277H52.6872L53.1109 101.474H46.7072L40.7754 112.725H47.2596L47.6833 111.922H42.0519Z" fill="#0052FF"/>
<path d="M52.0083 111.922L57.5161 101.474H56.6634L50.7319 112.725H56.8941L57.3178 111.922H52.0083Z" fill="#0052FF"/>
<path d="M74.5804 112.42L73.8917 110.797C74.683 110.089 75.3974 109.254 76.0084 108.369L75.4809 107.935C74.9021 108.82 74.2623 109.575 73.6268 110.17L72.0438 106.489C71.7248 105.782 71.5328 105.139 72.0159 104.222C72.6686 102.985 74.124 102.117 75.4597 102.117C76.6022 102.117 77.188 102.776 76.9665 103.837L77.895 103.419C78.1157 102.085 77.292 101.297 75.8759 101.297C74.2023 101.297 72.1048 102.406 71.13 104.254C70.6299 105.203 70.6686 105.862 70.8699 106.457C69.0664 107.1 67.6413 108.337 66.9039 109.736C65.8783 111.681 66.6823 112.902 68.9031 112.902C70.3996 112.902 71.7982 112.356 73.0122 111.488L73.5952 112.854L74.5804 112.42ZM69.3032 112.083C67.6135 112.083 67.0015 111.198 67.7813 109.72C68.3238 108.691 69.4389 107.614 71.1347 107.084L72.755 110.877C71.6231 111.681 70.4457 112.083 69.3032 112.083Z" fill="#0052FF"/>
<path d="M96.1575 101.474H88.2084L87.7847 102.277H91.3247L85.8156 112.725H86.6845L92.1937 102.277H95.7338L96.1575 101.474Z" fill="#0052FF"/>
<path d="M97.8044 112.902C101.055 112.902 104.979 110.314 106.675 107.1C108.371 103.885 107.177 101.297 103.926 101.297C100.675 101.297 96.7507 103.885 95.055 107.1C93.3594 110.314 94.5533 112.902 97.8044 112.902ZM98.2368 112.083C95.4525 112.083 94.4498 109.864 95.908 107.1C97.3663 104.335 100.709 102.117 103.493 102.117C106.278 102.117 107.28 104.335 105.822 107.1C104.364 109.864 101.021 112.083 98.2368 112.083Z" fill="#0052FF"/>
<path d="M111.032 112.902C113.51 112.902 115.99 111.343 117.244 108.964L121.194 101.474H120.341L116.391 108.964C115.425 110.797 113.604 112.083 111.464 112.083C109.34 112.083 108.876 110.797 109.842 108.964L113.792 101.474H112.939L108.989 108.964C107.735 111.343 108.554 112.902 111.032 112.902Z" fill="#0052FF"/>
<path d="M126.394 112.725H127.376L127.068 108C128.703 107.614 130.427 106.328 131.232 104.801C132.199 102.969 131.49 101.474 129.656 101.474H125.215L119.282 112.725H120.135L122.567 108.112H126.123L126.394 112.725ZM125.644 102.277H129.232C130.6 102.277 131.117 103.403 130.38 104.801C129.651 106.183 127.947 107.309 126.579 107.309H122.991L125.644 102.277Z" fill="#0052FF"/>
<path d="M133.715 112.902C135.952 112.902 138.06 111.681 139.043 109.816C140.069 107.871 138.662 107.244 137.014 106.585C135.684 106.055 134.762 105.637 135.474 104.287C136.135 103.033 137.6 102.117 139.161 102.117C140.77 102.117 141.147 103.049 141.032 104.062L141.967 103.66C142.107 102.358 141.443 101.297 139.593 101.297C137.678 101.297 135.563 102.47 134.588 104.319C133.554 106.28 134.964 106.81 136.525 107.421C137.958 107.968 138.878 108.482 138.166 109.832C137.488 111.118 136.03 112.083 134.147 112.083C132.297 112.083 131.638 111.166 131.963 109.816L130.994 110.25C130.67 111.841 131.607 112.902 133.715 112.902Z" fill="#0052FF"/>
</g>
<defs>
<clipPath id="clip0_1_54">
<rect width="155" height="113" fill="white"/>
</clipPath>
</defs>
</svg>

<?xml version="1.0" encoding="UTF-8" standalone="no"?><!DOCTYPE svg PUBLIC "-//W3C//DTD SVG 1.1//EN" "http://www.w3.org/Graphics/SVG/1.1/DTD/svg11.dtd"><svg width="100%" height="100%" viewBox="0 0 155 113" version="1.1" xmlns="http://www.w3.org/2000/svg" xmlns:xlink="http://www.w3.org/1999/xlink" xml:space="preserve" xmlns:serif="http://www.serif.com/" style="fill-rule:evenodd;clip-rule:evenodd;stroke-linejoin:round;stroke-miterlimit:2;"><g><path d="M114.028,8.784l-13.76,17.398l-2.487,-11.035l10.658,-13.476c0.149,-0.162 0.286,-0.335 0.447,-0.486c0.485,-0.453 1.072,-0.792 1.704,-0.988c0.564,-0.174 0.72,-0.153 1.304,-0.197l18.379,-0c0.556,0.04 0.703,0.02 1.24,0.178c1.408,0.412 2.569,1.567 2.984,2.977c0.158,0.537 0.139,0.683 0.179,1.238l-0,36.863l2.028,0l0.625,0.044c0.544,0.119 0.693,0.121 1.203,0.352c1.145,0.522 2.041,1.553 2.396,2.758c0.157,0.537 0.137,0.683 0.177,1.238l0,11.538c-0.04,0.553 -0.02,0.7 -0.177,1.236c-0.415,1.408 -1.577,2.565 -2.984,2.977c-0.538,0.158 -0.686,0.138 -1.24,0.178l-22.296,0c-0.555,-0.04 -0.702,-0.02 -1.24,-0.178c-1.408,-0.413 -2.569,-1.567 -2.984,-2.977c-0.158,-0.536 -0.138,-0.683 -0.178,-1.236l0,-10.733l8.804,-10.981l0,17.321l13.491,0l0,-2.754l-2.028,0c-0.555,-0.039 -0.702,-0.02 -1.239,-0.177c-1.409,-0.413 -2.569,-1.567 -2.984,-2.977c-0.159,-0.536 -0.139,-0.684 -0.179,-1.237l0,-36.864l-11.843,0Z" style="fill:#0052ff;"/><path d="M118.81,11.661l0,14.063l-18.172,22.667l-0.448,0.48c-0.171,0.136 -0.333,0.285 -0.513,0.408c-0.545,0.369 -1.173,0.615 -1.821,0.712c-0.217,0.033 -0.437,0.033 -0.656,0.048l-18.697,0c-0.593,-0.045 -0.751,-0.023 -1.323,-0.202c-1.071,-0.337 -1.995,-1.093 -2.535,-2.074c-0.289,-0.524 -0.298,-0.683 -0.459,-1.254l-0.313,-1.564l6.619,-11.766l1.619,8.077l12.974,0l23.725,-29.595Z" style="fill:#0052ff;"/><path d="M38.861,50.04l-1.921,2.753l15.33,0l23.29,-41.391l2.832,12.908l-19.706,35.026l-0.368,0.552c-0.397,0.435 -0.476,0.571 -0.966,0.908c-0.548,0.38 -1.185,0.631 -1.841,0.731c-0.218,0.033 -0.441,0.033 -0.664,0.05l-26.333,0c-0.854,-0.062 -1.701,-0.252 -2.415,-0.721c-1.772,-1.162 -2.496,-3.686 -1.523,-5.631c0.095,-0.19 0.217,-0.366 0.325,-0.549l8.047,-11.538c0.382,-0.473 0.795,-0.919 1.312,-1.234c0.344,-0.211 0.716,-0.374 1.106,-0.484c0.195,-0.055 0.337,-0.087 0.467,-0.107l14.744,-0l-3.773,6.529c-0.123,0.18 -0.234,0.37 -0.371,0.542c-0.548,0.687 -1.303,1.201 -2.143,1.46c-0.563,0.174 -0.718,0.152 -1.3,0.196l-4.129,-0Zm14.555,-13.638l-45.335,-0c-0.995,-0.121 -1.943,-0.64 -2.303,-1.585c-0.496,-1.305 0.351,-2.922 1.713,-3.257c0.191,-0.047 0.392,-0.047 0.59,-0.071l38.011,0l2.303,-3.984l10.162,-0l-5.141,8.897Zm15.959,-27.618l-46.522,0c-0.992,-0.12 -1.941,-0.638 -2.302,-1.585c-0.495,-1.305 0.351,-2.92 1.713,-3.255c0.192,-0.048 0.393,-0.048 0.589,-0.072l39.198,0l0.967,-1.674l0.372,-0.543c0.396,-0.426 0.476,-0.561 0.962,-0.891c0.542,-0.37 1.171,-0.617 1.825,-0.715c0.216,-0.033 0.437,-0.033 0.656,-0.049l17.718,0c0.219,0.016 0.439,0.033 0.658,0.049c0.569,0.13 0.726,0.132 1.256,0.388c0.795,0.382 1.465,1.005 1.904,1.768c0.294,0.51 0.307,0.666 0.478,1.223l6.498,28.838l-2.53,3.169l-5.779,0l-6.008,-26.651l-11.653,-0l0,0Zm-7.98,13.808l-45.579,0c-1.18,-0.143 -2.292,-0.919 -2.444,-2.159c-0.145,-1.19 0.692,-2.394 1.855,-2.681c0.193,-0.047 0.392,-0.047 0.589,-0.07l38.255,-0l2.304,-3.985l10.163,0l-5.143,8.895Z" style="fill:#f00;"/><path d="M20.341,71.011l-13.841,24.519l5.269,-0l5.544,-10.282l1.73,10.729l9.564,-10.729l-1.963,10.282l5.269,-0l4.061,-24.519l-13.051,14.34l-2.582,-14.34Z" style="fill:#f00;fill-rule:nonzero;"/><path d="M49.179,91.025l0.215,4.505l5.474,-0l-1.861,-24.519l-19.762,24.519l5.475,-0l3.572,-4.505l6.887,-0Zm-0.074,-4.608l-3.375,0l3.172,-4.161l0.203,4.161Z" style="fill:#f00;fill-rule:nonzero;"/><path d="M80.613,80.331c1.782,-4.883 -0.756,-8.873 -5.679,-8.873l-8.917,0.001l-8.785,24.071l5.164,0l2.372,-6.499l3.167,-0c2.617,-0 3.573,2.097 2.644,4.642l-0.678,1.857l5.164,0l0.678,-1.857c0.916,-2.51 1.21,-4.917 -0.792,-6.981c2.258,-1.375 4.482,-3.129 5.662,-6.361Zm-5.268,-0c-0.816,2.235 -3.352,4.092 -5.625,4.092l-3.27,-0l2.999,-8.219l3.271,-0c2.272,-0 3.453,1.857 2.625,4.127Z" style="fill:#f00;fill-rule:nonzero;"/><path d="M92.778,71.459l-5.161,-0.001l-8.774,24.072l5.161,0l8.774,-24.072Z" style="fill:#f00;fill-rule:nonzero;"/><path d="M91.531,83.528c-2.511,6.878 0.965,12.449 7.817,12.449c6.852,-0 14.361,-5.571 16.872,-12.449c2.523,-6.912 -0.953,-12.483 -7.805,-12.483c-6.852,0 -14.361,5.571 -16.884,12.483Zm5.406,0c1.481,-4.058 5.81,-7.428 9.632,-7.428c3.788,0 5.726,3.37 4.244,7.428c-1.481,4.058 -5.832,7.394 -9.62,7.394c-3.822,-0 -5.738,-3.336 -4.256,-7.394Z" style="fill:#f00;fill-rule:nonzero;"/><path d="M114.998,95.53l14.251,0l1.757,-4.814l-9.088,-0l7.026,-19.258l-5.163,0l-8.783,24.072Z" style="fill:#f00;fill-rule:nonzero;"/><path d="M140.632,71.459l-5.715,-0.001l2.328,13.996l-3.677,10.076l5.164,0l3.678,-10.076l12.545,-13.996l-5.715,0l-7.517,8.804l-1.091,-8.804Z" style="fill:#f00;fill-rule:nonzero;"/><g transform="matrix(1,0,-0.415958,1,31.4993,0)"><g transform="matrix(15.4449,0,0,15.4449,167.035,112.811)"></g><text x="14.328px" y="112.811px" style="font-family:'BrandingSF-Light', 'Branding SF';font-weight:300;font-size:15.445px;fill:#0052ff;">SER<tspan x="39.2px " y="112.811px ">V</tspan>ICIOS <tspan x="87.872px " y="112.811px ">T</tspan>URIS<tspan x="126.778px " y="112.811px ">T</tspan>IC<tspan x="147.796px " y="112.811px ">O</tspan>S</text></g></g></svg>
